svgs/sharp-light/computer.svg

<svg xmlns="http://www.w3.org/2000/svg" viewBox="0 0 640 512"><!--! Font Awesome Pro 6.5.2 by @fontawesome - https://fontawesome.com License - https://fontawesome.com/license (Commercial License) Copyright 2024 Fonticons, Inc. --><path d="M416 64V352H275.5 264 184 172.5 32V64H416zM32 384H161.8l-21.3 64H64v32h65.8H152 296h22.2H384V448H307.5l-21.3-64H416h32V352 64 32H416 32 0V64 352v32H32zm142.2 64l21.3-64h56.9l21.3 64H174.2zM512 64h96v64H512V64zm0 96h96v32H512V160zm0 288V224h96V448H512zM480 32V64 448v32h32 96 32V448 64 32H608 512 480zm80 328a24 24 0 1 0 0-48 24 24 0 1 0 0 48z"/></svg>

<svg xmlns="http://www.w3.org/2000/svg" viewBox="0 0 640 512"><!--! Font Awesome Pro 6.6.0 by @fontawesome - https://fontawesome.com License - https://fontawesome.com/license (Commercial License) Copyright 2024 Fonticons, Inc. --><path d="M416 64l0 288-140.5 0L264 352l-80 0-11.5 0L32 352 32 64l384 0zM32 384l129.8 0-21.3 64L64 448l0 32 65.8 0 22.2 0 144 0 22.2 0 65.8 0 0-32-76.5 0-21.3-64L416 384l32 0 0-32 0-288 0-32-32 0L32 32 0 32 0 64 0 352l0 32 32 0zm142.2 64l21.3-64 56.9 0 21.3 64-99.6 0zM512 64l96 0 0 64-96 0 0-64zm0 96l96 0 0 32-96 0 0-32zm0 288l0-224 96 0 0 224-96 0zM480 32l0 32 0 384 0 32 32 0 96 0 32 0 0-32 0-384 0-32-32 0-96 0-32 0zm80 328a24 24 0 1 0 0-48 24 24 0 1 0 0 48z"/></svg>
